!! 00000] TT[WS
!!!OTL: Gan liu
!!!ARE: Asia, China, Shanxi Linxian
!! Ethnic Group: Han
!! WII, 115 (2)
!!!SCT: J0576
!!!YEM: Copyright 1995, estate of Helmut Schaffrath.
**kern
*ICvox
*Ivox
*M2/4
*k[b-]
*F:
{8a
8cc
4dd
=1
8.ff
16ff
8dd
8cc
=2
8dd
8cc
8a
8dd
=3
2cc}
=4
{8a
8cc
4dd
=5
8ff
4cc
8a
=6
4cc
8a
8cc
=7
2g}
=8
{4cc
4g
=9
8cc
4g
8a
=10
8cc
8b-
8cc
8dd
=11
2f}
=12
{8d
8f
4g
=13
8cc
4f
8d
=14
8c
8c
8d
8f
=15
2c}
=16
{4.g
8a
=17
2g
=18
8.cc
16b-
8cc
8dd
=19
2f}
=20
{8d
8f
4g
=21
8cc
4f
8d
=22
8c
8c
8d
8f
=23
2c}
==
!!!AGN: Xiaodiao. Qingge, Sichun
!!!ONB: ESAC (Essen Associative Code) Database: CHINA
!!!AMT: simple duple
!!!AIN: vox
!!!EED: Helmut Schaffrath
!!!EEV: 1.0
*-
